SFASUI/public/images/upload-image1.svg

<svg width="328" height="321" viewBox="0 0 328 321" fill="none" xmlns="http://www.w3.org/2000/svg">
<path d="M149.333 144.5H178.667C179.153 144.5 179.619 144.693 179.963 145.037C180.307 145.381 180.5 145.847 180.5 146.333V175.667C180.5 176.153 180.307 176.619 179.963 176.963C179.619 177.307 179.153 177.5 178.667 177.5H149.333C148.847 177.5 148.381 177.307 148.037 176.963C147.693 176.619 147.5 176.153 147.5 175.667V146.333C147.5 145.847 147.693 145.381 148.037 145.037C148.381 144.693 148.847 144.5 149.333 144.5V144.5ZM162.167 159.167H154.833V162.833H162.167V170.167H165.833V162.833H173.167V159.167H165.833V151.833H162.167V159.167Z" fill="#19B2B8"/>
<path d="M4 320.5C3.5245 320.5 3.07236 320.405 2.66037 320.235L2.27732 321.158C2.8086 321.379 3.39076 321.5 4 321.5V320.5ZM0.765384 318.34C0.594542 317.928 0.5 317.475 0.5 317H-0.5C-0.5 317.609 -0.378654 318.191 -0.158342 318.723L0.765384 318.34ZM0.5 317V314.476H-0.5V317H0.5ZM0.5 309.427V304.379H-0.5V309.427H0.5ZM0.5 299.331V294.282H-0.5V299.331H0.5ZM0.5 289.234V284.185H-0.5V289.234H0.5ZM0.5 279.137V274.089H-0.5V279.137H0.5ZM0.5 269.04V263.992H-0.5V269.04H0.5ZM0.5 258.944V253.895H-0.5V258.944H0.5ZM0.5 248.847V243.798H-0.5V248.847H0.5ZM0.5 238.75V233.702H-0.5V238.75H0.5ZM0.5 228.653V223.605H-0.5V228.653H0.5ZM0.5 218.556V213.508H-0.5V218.556H0.5ZM0.5 208.46V203.411H-0.5V208.46H0.5ZM0.5 198.363V193.315H-0.5V198.363H0.5ZM0.5 188.266V183.218H-0.5V188.266H0.5ZM0.5 178.169V173.121H-0.5V178.169H0.5ZM0.5 168.073V163.024H-0.5V168.073H0.5ZM0.5 157.976V152.927H-0.5V157.976H0.5ZM0.5 147.879V142.831H-0.5V147.879H0.5ZM0.5 137.782V132.734H-0.5V137.782H0.5ZM0.5 127.686V122.637H-0.5V127.686H0.5ZM0.5 117.589V112.54H-0.5V117.589H0.5ZM0.5 107.492V102.444H-0.5V107.492H0.5ZM0.5 97.3952V92.3468H-0.5V97.3952H0.5ZM0.5 87.2984V82.25H-0.5V87.2984H0.5ZM0.5 77.2017V72.1533H-0.5V77.2017H0.5ZM0.5 67.1049V62.0565H-0.5V67.1049H0.5ZM0.5 57.0081V51.9597H-0.5V57.0081H0.5ZM0.5 46.9113V41.8629H-0.5V46.9113H0.5ZM0.5 36.8145V31.7661H-0.5V36.8145H0.5ZM0.5 26.7177V21.6693H-0.5V26.7177H0.5ZM0.5 16.6209V11.5725H-0.5V16.6209H0.5ZM0.5 6.52412V4H-0.5V6.52412H0.5ZM0.5 4C0.5 3.52451 0.594542 3.07236 0.765385 2.66038L-0.158341 2.27732C-0.378653 2.8086 -0.5 3.39076 -0.5 4H0.5ZM2.66038 0.765386C3.07236 0.594543 3.52451 0.5 4 0.5V-0.5C3.39076 -0.5 2.8086 -0.378653 2.27732 -0.15834L2.66038 0.765386ZM4 0.5H6.5V-0.5H4V0.5ZM11.5 0.5H16.5V-0.5H11.5V0.5ZM21.5 0.5H26.5V-0.5H21.5V0.5ZM31.5 0.5H36.5V-0.5H31.5V0.5ZM41.5 0.5H46.5V-0.5H41.5V0.5ZM51.5 0.5H56.5V-0.5H51.5V0.5ZM61.5 0.5H66.5V-0.5H61.5V0.5ZM71.5 0.5H76.5V-0.5H71.5V0.5ZM81.5 0.5H86.5V-0.5H81.5V0.5ZM91.5 0.5H96.5V-0.5H91.5V0.5ZM101.5 0.5H106.5V-0.5H101.5V0.5ZM111.5 0.5H116.5V-0.5H111.5V0.5ZM121.5 0.5H126.5V-0.5H121.5V0.5ZM131.5 0.5H136.5V-0.5H131.5V0.5ZM141.5 0.5H146.5V-0.5H141.5V0.5ZM151.5 0.5H156.5V-0.5H151.5V0.5ZM161.5 0.5H166.5V-0.5H161.5V0.5ZM171.5 0.5H176.5V-0.5H171.5V0.5ZM181.5 0.5H186.5V-0.5H181.5V0.5ZM191.5 0.5H196.5V-0.5H191.5V0.5ZM201.5 0.5H206.5V-0.5H201.5V0.5ZM211.5 0.5H216.5V-0.5H211.5V0.5ZM221.5 0.5H226.5V-0.5H221.5V0.5ZM231.5 0.5H236.5V-0.5H231.5V0.5ZM241.5 0.5H246.5V-0.5H241.5V0.5ZM251.5 0.5H256.5V-0.5H251.5V0.5ZM261.5 0.5H266.5V-0.5H261.5V0.5ZM271.5 0.5H276.5V-0.5H271.5V0.5ZM281.5 0.5H286.5V-0.5H281.5V0.5ZM291.5 0.5H296.5V-0.5H291.5V0.5ZM301.5 0.5H306.5V-0.5H301.5V0.5ZM311.5 0.5H316.5V-0.5H311.5V0.5ZM321.5 0.5H324V-0.5H321.5V0.5ZM324 0.5C324.475 0.5 324.928 0.594543 325.34 0.765385L325.723 -0.158341C325.191 -0.378653 324.609 -0.5 324 -0.5V0.5ZM327.235 2.66038C327.405 3.07236 327.5 3.52451 327.5 4H328.5C328.5 3.39076 328.379 2.8086 328.158 2.27732L327.235 2.66038ZM327.5 4V6.52419H328.5V4H327.5ZM327.5 11.5726V16.621H328.5V11.5726H327.5ZM327.5 21.6694V26.7177H328.5V21.6694H327.5ZM327.5 31.7661V36.8145H328.5V31.7661H327.5ZM327.5 41.8629V46.9113H328.5V41.8629H327.5ZM327.5 51.9597V57.0081H328.5V51.9597H327.5ZM327.5 62.0564V67.1048H328.5V62.0564H327.5ZM327.5 72.1532V77.2016H328.5V72.1532H327.5ZM327.5 82.25V87.2984H328.5V82.25H327.5ZM327.5 92.3468V97.3951H328.5V92.3468H327.5ZM327.5 102.444V107.492H328.5V102.444H327.5ZM327.5 112.54V117.589H328.5V112.54H327.5ZM327.5 122.637V127.685H328.5V122.637H327.5ZM327.5 132.734V137.782H328.5V132.734H327.5ZM327.5 142.831V147.879H328.5V142.831H327.5ZM327.5 152.927V157.976H328.5V152.927H327.5ZM327.5 163.024V168.073H328.5V163.024H327.5ZM327.5 173.121V178.169H328.5V173.121H327.5ZM327.5 183.218V188.266H328.5V183.218H327.5ZM327.5 193.314V198.363H328.5V193.314H327.5ZM327.5 203.411V208.46H328.5V203.411H327.5ZM327.5 213.508V218.556H328.5V213.508H327.5ZM327.5 223.605V228.653H328.5V223.605H327.5ZM327.5 233.702V238.75H328.5V233.702H327.5ZM327.5 243.798V248.847H328.5V243.798H327.5ZM327.5 253.895V258.943H328.5V253.895H327.5ZM327.5 263.992V269.04H328.5V263.992H327.5ZM327.5 274.089V279.137H328.5V274.089H327.5ZM327.5 284.185V289.234H328.5V284.185H327.5ZM327.5 294.282V299.331H328.5V294.282H327.5ZM327.5 304.379V309.427H328.5V304.379H327.5ZM327.5 314.476V317H328.5V314.476H327.5ZM327.5 317C327.5 317.475 327.405 317.928 327.235 318.34L328.158 318.723C328.379 318.191 328.5 317.609 328.5 317H327.5ZM325.34 320.235C324.928 320.405 324.475 320.5 324 320.5V321.5C324.609 321.5 325.191 321.379 325.723 321.158L325.34 320.235ZM324 320.5H321.5V321.5H324V320.5ZM316.5 320.5H311.5V321.5H316.5V320.5ZM306.5 320.5H301.5V321.5H306.5V320.5ZM296.5 320.5H291.5V321.5H296.5V320.5ZM286.5 320.5H281.5V321.5H286.5V320.5ZM276.5 320.5H271.5V321.5H276.5V320.5ZM266.5 320.5H261.5V321.5H266.5V320.5ZM256.5 320.5H251.5V321.5H256.5V320.5ZM246.5 320.5H241.5V321.5H246.5V320.5ZM236.5 320.5H231.5V321.5H236.5V320.5ZM226.5 320.5H221.5V321.5H226.5V320.5ZM216.5 320.5H211.5V321.5H216.5V320.5ZM206.5 320.5H201.5V321.5H206.5V320.5ZM196.5 320.5H191.5V321.5H196.5V320.5ZM186.5 320.5H181.5V321.5H186.5V320.5ZM176.5 320.5H171.5V321.5H176.5V320.5ZM166.5 320.5H161.5V321.5H166.5V320.5ZM156.5 320.5H151.5V321.5H156.5V320.5ZM146.5 320.5H141.5V321.5H146.5V320.5ZM136.5 320.5H131.5V321.5H136.5V320.5ZM126.5 320.5H121.5V321.5H126.5V320.5ZM116.5 320.5H111.5V321.5H116.5V320.5ZM106.5 320.5H101.5V321.5H106.5V320.5ZM96.5 320.5H91.5V321.5H96.5V320.5ZM86.5 320.5H81.5V321.5H86.5V320.5ZM76.5 320.5H71.5V321.5H76.5V320.5ZM66.5 320.5H61.5V321.5H66.5V320.5ZM56.5 320.5H51.5V321.5H56.5V320.5ZM46.5 320.5H41.5V321.5H46.5V320.5ZM36.5 320.5H31.5V321.5H36.5V320.5ZM26.5 320.5H21.5V321.5H26.5V320.5ZM16.5 320.5H11.5V321.5H16.5V320.5ZM6.5 320.5H4V321.5H6.5V320.5ZM4 320C3.59138 320 3.20423 319.919 2.8519 319.773L2.08579 321.62C2.67672 321.865 3.32388 322 4 322V320ZM1.22725 318.148C1.08114 317.796 1 317.409 1 317H-1C-1 317.676 -0.865251 318.323 -0.620205 318.914L1.22725 318.148ZM1 317V314.476H-1V317H1ZM1 309.427V304.379H-1V309.427H1ZM1 299.331V294.282H-1V299.331H1ZM1 289.234V284.185H-1V289.234H1ZM1 279.137V274.089H-1V279.137H1ZM1 269.04V263.992H-1V269.04H1ZM1 258.944V253.895H-1V258.944H1ZM1 248.847V243.798H-1V248.847H1ZM1 238.75V233.702H-1V238.75H1ZM1 228.653V223.605H-1V228.653H1ZM1 218.556V213.508H-1V218.556H1ZM1 208.46V203.411H-1V208.46H1ZM1 198.363V193.315H-1V198.363H1ZM1 188.266V183.218H-1V188.266H1ZM1 178.169V173.121H-1V178.169H1ZM1 168.073V163.024H-1V168.073H1ZM1 157.976V152.927H-1V157.976H1ZM1 147.879V142.831H-1V147.879H1ZM1 137.782V132.734H-1V137.782H1ZM1 127.686V122.637H-1V127.686H1ZM1 117.589V112.54H-1V117.589H1ZM1 107.492V102.444H-1V107.492H1ZM1 97.3952V92.3468H-1V97.3952H1ZM1 87.2984V82.25H-1V87.2984H1ZM1 77.2017V72.1533H-1V77.2017H1ZM1 67.1049V62.0565H-1V67.1049H1ZM1 57.0081V51.9597H-1V57.0081H1ZM1 46.9113V41.8629H-1V46.9113H1ZM1 36.8145V31.7661H-1V36.8145H1ZM1 26.7177V21.6693H-1V26.7177H1ZM1 16.6209V11.5725H-1V16.6209H1ZM1 6.52412V4H-1V6.52412H1ZM1 4C1 3.59138 1.08114 3.20424 1.22725 2.8519L-0.620204 2.0858C-0.865251 2.67672 -1 3.32389 -1 4H1ZM2.8519 1.22725C3.20424 1.08114 3.59138 1 4 1V-1C3.32388 -1 2.67672 -0.865251 2.08579 -0.620203L2.8519 1.22725ZM4 1H6.5V-1H4V1ZM11.5 1H16.5V-1H11.5V1ZM21.5 1H26.5V-1H21.5V1ZM31.5 1H36.5V-1H31.5V1ZM41.5 1H46.5V-1H41.5V1ZM51.5 1H56.5V-1H51.5V1ZM61.5 1H66.5V-1H61.5V1ZM71.5 1H76.5V-1H71.5V1ZM81.5 1H86.5V-1H81.5V1ZM91.5 1H96.5V-1H91.5V1ZM101.5 1H106.5V-1H101.5V1ZM111.5 1H116.5V-1H111.5V1ZM121.5 1H126.5V-1H121.5V1ZM131.5 1H136.5V-1H131.5V1ZM141.5 1H146.5V-1H141.5V1ZM151.5 1H156.5V-1H151.5V1ZM161.5 1H166.5V-1H161.5V1ZM171.5 1H176.5V-1H171.5V1ZM181.5 1H186.5V-1H181.5V1ZM191.5 1H196.5V-1H191.5V1ZM201.5 1H206.5V-1H201.5V1ZM211.5 1H216.5V-1H211.5V1ZM221.5 1H226.5V-1H221.5V1ZM231.5 1H236.5V-1H231.5V1ZM241.5 1H246.5V-1H241.5V1ZM251.5 1H256.5V-1H251.5V1ZM261.5 1H266.5V-1H261.5V1ZM271.5 1H276.5V-1H271.5V1ZM281.5 1H286.5V-1H281.5V1ZM291.5 1H296.5V-1H291.5V1ZM301.5 1H306.5V-1H301.5V1ZM311.5 1H316.5V-1H311.5V1ZM321.5 1H324V-1H321.5V1ZM324 1C324.409 1 324.796 1.08114 325.148 1.22725L325.914 -0.620204C325.323 -0.865251 324.676 -1 324 -1V1ZM326.773 2.8519C326.919 3.20424 327 3.59138 327 4H329C329 3.32389 328.865 2.67672 328.62 2.0858L326.773 2.8519ZM327 4V6.52419H329V4H327ZM327 11.5726V16.621H329V11.5726H327ZM327 21.6694V26.7177H329V21.6694H327ZM327 31.7661V36.8145H329V31.7661H327ZM327 41.8629V46.9113H329V41.8629H327ZM327 51.9597V57.0081H329V51.9597H327ZM327 62.0564V67.1048H329V62.0564H327ZM327 72.1532V77.2016H329V72.1532H327ZM327 82.25V87.2984H329V82.25H327ZM327 92.3468V97.3951H329V92.3468H327ZM327 102.444V107.492H329V102.444H327ZM327 112.54V117.589H329V112.54H327ZM327 122.637V127.685H329V122.637H327ZM327 132.734V137.782H329V132.734H327ZM327 142.831V147.879H329V142.831H327ZM327 152.927V157.976H329V152.927H327ZM327 163.024V168.073H329V163.024H327ZM327 173.121V178.169H329V173.121H327ZM327 183.218V188.266H329V183.218H327ZM327 193.314V198.363H329V193.314H327ZM327 203.411V208.46H329V203.411H327ZM327 213.508V218.556H329V213.508H327ZM327 223.605V228.653H329V223.605H327ZM327 233.702V238.75H329V233.702H327ZM327 243.798V248.847H329V243.798H327ZM327 253.895V258.943H329V253.895H327ZM327 263.992V269.04H329V263.992H327ZM327 274.089V279.137H329V274.089H327ZM327 284.185V289.234H329V284.185H327ZM327 294.282V299.331H329V294.282H327ZM327 304.379V309.427H329V304.379H327ZM327 314.476V317H329V314.476H327ZM327 317C327 317.409 326.919 317.796 326.773 318.148L328.62 318.914C328.865 318.323 329 317.676 329 317H327ZM325.148 319.773C324.796 319.919 324.409 320 324 320V322C324.676 322 325.323 321.865 325.914 321.62L325.148 319.773ZM324 320H321.5V322H324V320ZM316.5 320H311.5V322H316.5V320ZM306.5 320H301.5V322H306.5V320ZM296.5 320H291.5V322H296.5V320ZM286.5 320H281.5V322H286.5V320ZM276.5 320H271.5V322H276.5V320ZM266.5 320H261.5V322H266.5V320ZM256.5 320H251.5V322H256.5V320ZM246.5 320H241.5V322H246.5V320ZM236.5 320H231.5V322H236.5V320ZM226.5 320H221.5V322H226.5V320ZM216.5 320H211.5V322H216.5V320ZM206.5 320H201.5V322H206.5V320ZM196.5 320H191.5V322H196.5V320ZM186.5 320H181.5V322H186.5V320ZM176.5 320H171.5V322H176.5V320ZM166.5 320H161.5V322H166.5V320ZM156.5 320H151.5V322H156.5V320ZM146.5 320H141.5V322H146.5V320ZM136.5 320H131.5V322H136.5V320ZM126.5 320H121.5V322H126.5V320ZM116.5 320H111.5V322H116.5V320ZM106.5 320H101.5V322H106.5V320ZM96.5 320H91.5V322H96.5V320ZM86.5 320H81.5V322H86.5V320ZM76.5 320H71.5V322H76.5V320ZM66.5 320H61.5V322H66.5V320ZM56.5 320H51.5V322H56.5V320ZM46.5 320H41.5V322H46.5V320ZM36.5 320H31.5V322H36.5V320ZM26.5 320H21.5V322H26.5V320ZM16.5 320H11.5V322H16.5V320ZM6.5 320H4V322H6.5V320Z" fill="#ABA7AF"/>
</svg>

<svg width="328" height="321" fill="none" xmlns="http://www.w3.org/2000/svg"><path d="M149.333 144.5h29.334a1.832 1.832 0 0 1 1.833 1.833v29.334a1.832 1.832 0 0 1-1.833 1.833h-29.334a1.832 1.832 0 0 1-1.833-1.833v-29.334a1.832 1.832 0 0 1 1.833-1.833Zm12.834 14.667h-7.334v3.666h7.334v7.334h3.666v-7.334h7.334v-3.666h-7.334v-7.334h-3.666v7.334Z" fill="#19B2B8"/><path d="M4 320.5c-.475 0-.928-.095-1.34-.265l-.383.923A4.475 4.475 0 0 0 4 321.5v-1Zm-3.235-2.16A3.492 3.492 0 0 1 .5 317h-1c0 .609.121 1.191.342 1.723l.923-.383ZM.5 317v-2.524h-1V317h1Zm0-7.573v-5.048h-1v5.048h1Zm0-10.096v-5.049h-1v5.049h1Zm0-10.097v-5.049h-1v5.049h1Zm0-10.097v-5.048h-1v5.048h1Zm0-10.097v-5.048h-1v5.048h1Zm0-10.096v-5.049h-1v5.049h1Zm0-10.097v-5.049h-1v5.049h1Zm0-10.097v-5.048h-1v5.048h1Zm0-10.097v-5.048h-1v5.048h1Zm0-10.097v-5.048h-1v5.048h1Zm0-10.096v-5.049h-1v5.049h1Zm0-10.097v-5.048h-1v5.048h1Zm0-10.097v-5.048h-1v5.048h1Zm0-10.097v-5.048h-1v5.048h1Zm0-10.096v-5.049h-1v5.049h1Zm0-10.097v-5.049h-1v5.049h1Zm0-10.097v-5.048h-1v5.048h1Zm0-10.097v-5.048h-1v5.048h1Zm0-10.096v-5.049h-1v5.049h1Zm0-10.097v-5.049h-1v5.049h1Zm0-10.097v-5.048h-1v5.048h1Zm0-10.097v-5.048h-1v5.048h1Zm0-10.097V82.25h-1v5.048h1Zm0-10.096v-5.049h-1v5.049h1Zm0-10.097v-5.049h-1v5.049h1Zm0-10.097V51.96h-1v5.048h1Zm0-10.097v-5.048h-1v5.048h1Zm0-10.096v-5.049h-1v5.049h1Zm0-10.097v-5.049h-1v5.049h1Zm0-10.097v-5.048h-1v5.048h1Zm0-10.097V4h-1v2.524h1ZM.5 4c0-.475.095-.928.265-1.34l-.923-.383A4.488 4.488 0 0 0-.5 4h1ZM2.66.765C3.072.595 3.525.5 4 .5v-1c-.61 0-1.191.121-1.723.342l.383.923ZM4 .5h2.5v-1H4v1Zm7.5 0h5v-1h-5v1Zm10 0h5v-1h-5v1Zm10 0h5v-1h-5v1Zm10 0h5v-1h-5v1Zm10 0h5v-1h-5v1Zm10 0h5v-1h-5v1Zm10 0h5v-1h-5v1Zm10 0h5v-1h-5v1Zm10 0h5v-1h-5v1Zm10 0h5v-1h-5v1Zm10 0h5v-1h-5v1Zm10 0h5v-1h-5v1Zm10 0h5v-1h-5v1Zm10 0h5v-1h-5v1Zm10 0h5v-1h-5v1Zm10 0h5v-1h-5v1Zm10 0h5v-1h-5v1Zm10 0h5v-1h-5v1Zm10 0h5v-1h-5v1Zm10 0h5v-1h-5v1Zm10 0h5v-1h-5v1Zm10 0h5v-1h-5v1Zm10 0h5v-1h-5v1Zm10 0h5v-1h-5v1Zm10 0h5v-1h-5v1Zm10 0h5v-1h-5v1Zm10 0h5v-1h-5v1Zm10 0h5v-1h-5v1Zm10 0h5v-1h-5v1Zm10 0h5v-1h-5v1Zm10 0h5v-1h-5v1Zm10 0h2.5v-1h-2.5v1Zm2.5 0c.475 0 .928.095 1.34.265l.383-.923A4.493 4.493 0 0 0 324-.5v1Zm3.235 2.16c.17.412.265.865.265 1.34h1c0-.61-.121-1.191-.342-1.723l-.923.383ZM327.5 4v2.524h1V4h-1Zm0 7.573v5.048h1v-5.048h-1Zm0 10.096v5.049h1v-5.049h-1Zm0 10.097v5.049h1v-5.049h-1Zm0 10.097v5.048h1v-5.048h-1Zm0 10.097v5.048h1V51.96h-1Zm0 10.096v5.049h1v-5.049h-1Zm0 10.097v5.049h1v-5.049h-1Zm0 10.097v5.048h1V82.25h-1Zm0 10.097v5.048h1v-5.048h-1Zm0 10.097v5.048h1v-5.048h-1Zm0 10.096v5.049h1v-5.049h-1Zm0 10.097v5.048h1v-5.048h-1Zm0 10.097v5.048h1v-5.048h-1Zm0 10.097v5.048h1v-5.048h-1Zm0 10.096v5.049h1v-5.049h-1Zm0 10.097v5.049h1v-5.049h-1Zm0 10.097v5.048h1v-5.048h-1Zm0 10.097v5.048h1v-5.048h-1Zm0 10.096v5.049h1v-5.049h-1Zm0 10.097v5.049h1v-5.049h-1Zm0 10.097v5.048h1v-5.048h-1Zm0 10.097v5.048h1v-5.048h-1Zm0 10.097v5.048h1v-5.048h-1Zm0 10.096v5.049h1v-5.049h-1Zm0 10.097v5.048h1v-5.048h-1Zm0 10.097v5.048h1v-5.048h-1Zm0 10.097v5.048h1v-5.048h-1Zm0 10.096v5.049h1v-5.049h-1Zm0 10.097v5.049h1v-5.049h-1Zm0 10.097v5.048h1v-5.048h-1Zm0 10.097V317h1v-2.524h-1Zm0 2.524c0 .475-.095.928-.265 1.34l.923.383A4.48 4.48 0 0 0 328.5 317h-1Zm-2.16 3.235c-.412.17-.865.265-1.34.265v1a4.48 4.48 0 0 0 1.723-.342l-.383-.923Zm-1.34.265h-2.5v1h2.5v-1Zm-7.5 0h-5v1h5v-1Zm-10 0h-5v1h5v-1Zm-10 0h-5v1h5v-1Zm-10 0h-5v1h5v-1Zm-10 0h-5v1h5v-1Zm-10 0h-5v1h5v-1Zm-10 0h-5v1h5v-1Zm-10 0h-5v1h5v-1Zm-10 0h-5v1h5v-1Zm-10 0h-5v1h5v-1Zm-10 0h-5v1h5v-1Zm-10 0h-5v1h5v-1Zm-10 0h-5v1h5v-1Zm-10 0h-5v1h5v-1Zm-10 0h-5v1h5v-1Zm-10 0h-5v1h5v-1Zm-10 0h-5v1h5v-1Zm-10 0h-5v1h5v-1Zm-10 0h-5v1h5v-1Zm-10 0h-5v1h5v-1Zm-10 0h-5v1h5v-1Zm-10 0h-5v1h5v-1Zm-10 0h-5v1h5v-1Zm-10 0h-5v1h5v-1Zm-10 0h-5v1h5v-1Zm-10 0h-5v1h5v-1Zm-10 0h-5v1h5v-1Zm-10 0h-5v1h5v-1Zm-10 0h-5v1h5v-1Zm-10 0h-5v1h5v-1Zm-10 0h-5v1h5v-1Zm-10 0H4v1h2.5v-1ZM4 320a2.99 2.99 0 0 1-1.148-.227l-.766 1.847c.59.245 1.238.38 1.914.38v-2Zm-2.773-1.852A2.985 2.985 0 0 1 1 317h-2c0 .676.135 1.323.38 1.914l1.847-.766ZM1 317v-2.524h-2V317h2Zm0-7.573v-5.048h-2v5.048h2Zm0-10.096v-5.049h-2v5.049h2Zm0-10.097v-5.049h-2v5.049h2Zm0-10.097v-5.048h-2v5.048h2Zm0-10.097v-5.048h-2v5.048h2Zm0-10.096v-5.049h-2v5.049h2Zm0-10.097v-5.049h-2v5.049h2Zm0-10.097v-5.048h-2v5.048h2Zm0-10.097v-5.048h-2v5.048h2Zm0-10.097v-5.048h-2v5.048h2Zm0-10.096v-5.049h-2v5.049h2Zm0-10.097v-5.048h-2v5.048h2Zm0-10.097v-5.048h-2v5.048h2Zm0-10.097v-5.048h-2v5.048h2Zm0-10.096v-5.049h-2v5.049h2Zm0-10.097v-5.049h-2v5.049h2Zm0-10.097v-5.048h-2v5.048h2Zm0-10.097v-5.048h-2v5.048h2Zm0-10.096v-5.049h-2v5.049h2Zm0-10.097v-5.049h-2v5.049h2Zm0-10.097v-5.048h-2v5.048h2Zm0-10.097v-5.048h-2v5.048h2Zm0-10.097V82.25h-2v5.048h2Zm0-10.096v-5.049h-2v5.049h2Zm0-10.097v-5.049h-2v5.049h2Zm0-10.097V51.96h-2v5.048h2Zm0-10.097v-5.048h-2v5.048h2Zm0-10.096v-5.049h-2v5.049h2Zm0-10.097v-5.049h-2v5.049h2ZM1 16.62v-5.048h-2v5.048h2ZM1 6.524V4h-2v2.524h2ZM1 4c0-.409.081-.796.227-1.148L-.62 2.086A4.988 4.988 0 0 0-1 4h2Zm1.852-2.773C3.204 1.081 3.592 1 4 1v-2c-.676 0-1.323.135-1.914.38l.766 1.847ZM4 1h2.5v-2H4v2Zm7.5 0h5v-2h-5v2Zm10 0h5v-2h-5v2Zm10 0h5v-2h-5v2Zm10 0h5v-2h-5v2Zm10 0h5v-2h-5v2Zm10 0h5v-2h-5v2Zm10 0h5v-2h-5v2Zm10 0h5v-2h-5v2Zm10 0h5v-2h-5v2Zm10 0h5v-2h-5v2Zm10 0h5v-2h-5v2Zm10 0h5v-2h-5v2Zm10 0h5v-2h-5v2Zm10 0h5v-2h-5v2Zm10 0h5v-2h-5v2Zm10 0h5v-2h-5v2Zm10 0h5v-2h-5v2Zm10 0h5v-2h-5v2Zm10 0h5v-2h-5v2Zm10 0h5v-2h-5v2Zm10 0h5v-2h-5v2Zm10 0h5v-2h-5v2Zm10 0h5v-2h-5v2Zm10 0h5v-2h-5v2Zm10 0h5v-2h-5v2Zm10 0h5v-2h-5v2Zm10 0h5v-2h-5v2Zm10 0h5v-2h-5v2Zm10 0h5v-2h-5v2Zm10 0h5v-2h-5v2Zm10 0h5v-2h-5v2Zm10 0h2.5v-2h-2.5v2Zm2.5 0c.409 0 .796.081 1.148.227l.766-1.847A4.988 4.988 0 0 0 324-1v2Zm2.773 1.852c.146.352.227.74.227 1.148h2c0-.676-.135-1.323-.38-1.914l-1.847.766ZM327 4v2.524h2V4h-2Zm0 7.573v5.048h2v-5.048h-2Zm0 10.096v5.049h2v-5.049h-2Zm0 10.097v5.049h2v-5.049h-2Zm0 10.097v5.048h2v-5.048h-2Zm0 10.097v5.048h2V51.96h-2Zm0 10.096v5.049h2v-5.049h-2Zm0 10.097v5.049h2v-5.049h-2Zm0 10.097v5.048h2V82.25h-2Zm0 10.097v5.048h2v-5.048h-2Zm0 10.097v5.048h2v-5.048h-2Zm0 10.096v5.049h2v-5.049h-2Zm0 10.097v5.048h2v-5.048h-2Zm0 10.097v5.048h2v-5.048h-2Zm0 10.097v5.048h2v-5.048h-2Zm0 10.096v5.049h2v-5.049h-2Zm0 10.097v5.049h2v-5.049h-2Zm0 10.097v5.048h2v-5.048h-2Zm0 10.097v5.048h2v-5.048h-2Zm0 10.096v5.049h2v-5.049h-2Zm0 10.097v5.049h2v-5.049h-2Zm0 10.097v5.048h2v-5.048h-2Zm0 10.097v5.048h2v-5.048h-2Zm0 10.097v5.048h2v-5.048h-2Zm0 10.096v5.049h2v-5.049h-2Zm0 10.097v5.048h2v-5.048h-2Zm0 10.097v5.048h2v-5.048h-2Zm0 10.097v5.048h2v-5.048h-2Zm0 10.096v5.049h2v-5.049h-2Zm0 10.097v5.049h2v-5.049h-2Zm0 10.097v5.048h2v-5.048h-2Zm0 10.097V317h2v-2.524h-2Zm0 2.524c0 .409-.081.796-.227 1.148l1.847.766c.245-.591.38-1.238.38-1.914h-2Zm-1.852 2.773A2.987 2.987 0 0 1 324 320v2c.676 0 1.323-.135 1.914-.38l-.766-1.847ZM324 320h-2.5v2h2.5v-2Zm-7.5 0h-5v2h5v-2Zm-10 0h-5v2h5v-2Zm-10 0h-5v2h5v-2Zm-10 0h-5v2h5v-2Zm-10 0h-5v2h5v-2Zm-10 0h-5v2h5v-2Zm-10 0h-5v2h5v-2Zm-10 0h-5v2h5v-2Zm-10 0h-5v2h5v-2Zm-10 0h-5v2h5v-2Zm-10 0h-5v2h5v-2Zm-10 0h-5v2h5v-2Zm-10 0h-5v2h5v-2Zm-10 0h-5v2h5v-2Zm-10 0h-5v2h5v-2Zm-10 0h-5v2h5v-2Zm-10 0h-5v2h5v-2Zm-10 0h-5v2h5v-2Zm-10 0h-5v2h5v-2Zm-10 0h-5v2h5v-2Zm-10 0h-5v2h5v-2Zm-10 0h-5v2h5v-2Zm-10 0h-5v2h5v-2Zm-10 0h-5v2h5v-2Zm-10 0h-5v2h5v-2Zm-10 0h-5v2h5v-2Zm-10 0h-5v2h5v-2Zm-10 0h-5v2h5v-2Zm-10 0h-5v2h5v-2Zm-10 0h-5v2h5v-2Zm-10 0h-5v2h5v-2Zm-10 0H4v2h2.5v-2Z" fill="#ABA7AF"/></svg>
